vectors/vine/vine.svg

<svg version="1.1" xmlns="http://www.w3.org/2000/svg" xmlns:xlink="http://www.w3.org/1999/xlink" viewBox="0 0 512 198">
	<g fill="#00AA7F">
		<path d="M470.24121,105.032137 C478.915299,105.032137 483.018337,109.654213 483.018337,115.368907 C483.018337,122.941581 475.96646,135.77677 442.577375,136.15857 C443.896962,117.835656 455.928082,105.032137 470.24121,105.032137 L470.24121,105.032137 Z M445.670488,155.373526 C483.757306,156.38521 511.987684,141.915491 511.987684,113.595381 C511.987684,92.7054296 495.864082,77.4457182 470.440027,77.4457182 C436.347162,77.4457182 418.611904,103.652729 411.51956,131.635024 C407.383093,147.990873 401.077223,169.470241 388.465485,169.470241 C380.581388,169.470241 378.413746,161.587904 378.413746,151.734983 L378.413746,118.826227 C378.413746,91.8292234 365.210832,77.4457182 344.519698,77.4457182 C326.193265,77.4457182 312.017375,88.4792302 303.939739,101.877443 L303.151505,79.2174845 L276.550378,79.2174845 C276.550378,79.2174845 273.60154,169.470241 243.836921,169.470241 C233.589883,169.470241 230.23989,157.831478 230.23989,144.64088 L230.23989,79.2174845 L204.229938,79.2174845 C190.435849,94.7850997 171.928192,99.5145017 158.132344,99.5145017 C133.302983,99.5145017 114.188316,82.1733608 114.188316,52.0216632 C114.188316,37.2440412 119.90301,29.5587629 127.982405,29.5587629 C135.667684,29.5587629 140.791203,36.4558076 140.791203,50.4469553 C140.791203,58.4014296 138.660509,67.1195052 137.08932,72.2782131 C137.08932,72.2782131 144.741168,85.6254021 165.661031,81.5294021 C170.103643,71.6659244 172.519368,58.8940756 172.519368,47.6881375 C172.519368,17.5381993 157.147052,0 128.967698,0 C100.00011,0 83.0530859,22.2676014 83.0530859,51.6310653 C83.0530859,80.7182955 96.6518763,105.686653 119.07255,117.063258 C109.645416,135.924564 97.6459656,152.537292 85.1362749,165.05578 C62.4358488,137.613636 41.9118625,101.002997 33.491134,29.5587629 L0,29.5587629 C15.4726048,148.546859 61.5860344,186.4331 73.7772646,193.708426 C80.6743093,197.846653 86.6142131,197.649595 92.9200825,194.100784 C102.820509,188.472302 132.5429,158.75167 149.020151,123.939189 C163.804811,123.900481 184.951643,120.409732 198.515244,110.150378 L198.515244,144.049704 C198.515244,182.279038 213.097567,197.058419 235.757526,197.058419 C253.936165,197.058419 267.96954,182.887808 274.773333,166.989416 L274.773333,194.890777 L306.107381,194.890777 L306.107381,161.980261 C306.107381,124.343863 318.705045,106.01743 334.471478,106.01743 C343.337347,106.01743 347.083216,111.929182 347.083216,126.905622 L347.083216,156.858502 C347.083216,182.279038 360.48143,197.058419 380.581388,197.058419 C397.097347,197.058419 411.922474,184.175725 417.756811,167.883216 C427.715299,188.472302 450.642694,197.058419 470.637086,197.058419 C485.743725,197.058419 498.056357,193.923079 507.650639,188.208385 L507.650639,159.636674 C499.534296,165.163107 489.519505,169.864357 474.974131,169.864357 C461.100866,169.864357 450.646213,165.469251 445.670488,155.373526 L445.670488,155.373526 Z" />
		<path d="M216.185402,62.8616357 C228.204206,62.8616357 236.48066,53.7969485 236.48066,42.1705017 C236.48066,30.544055 228.204206,21.6764261 216.185402,21.6764261 C204.164838,21.6764261 196.085443,29.7558213 196.085443,42.1705017 C196.085443,54.5851821 204.164838,62.8616357 216.185402,62.8616357" />
	</g>
</svg>

<svg xmlns="http://www.w3.org/2000/svg" viewBox="0 0 512 198"><g fill="#00AA7F"><path d="M470.241 105.032c8.674 0 12.777 4.622 12.777 10.337 0 7.573-7.052 20.408-40.44 20.79 1.319-18.323 13.35-31.127 27.663-31.127zm-24.57 50.342c38.086 1.011 66.317-13.459 66.317-41.779 0-20.89-16.124-36.15-41.548-36.15-34.093 0-51.828 26.208-58.92 54.19-4.137 16.356-10.443 37.835-23.055 37.835-7.884 0-10.051-7.882-10.051-17.735v-32.909c0-26.997-13.203-41.38-33.894-41.38-18.327 0-32.503 11.033-40.58 24.431l-.788-22.66H276.55s-2.948 90.253-32.713 90.253c-10.247 0-13.597-11.639-13.597-24.83V79.218h-26.01c-13.794 15.568-32.302 20.298-46.098 20.298-24.829 0-43.944-17.342-43.944-47.493 0-14.778 5.715-22.463 13.794-22.463 7.686 0 12.81 6.897 12.81 20.888 0 7.954-2.131 16.673-3.703 21.831 0 0 7.652 13.347 28.572 9.251 4.443-9.863 6.858-22.635 6.858-33.84C172.52 17.538 157.147 0 128.968 0 100 0 83.053 22.268 83.053 51.631c0 29.087 13.599 54.056 36.02 65.432-9.428 18.862-21.427 35.474-33.937 47.993-22.7-27.442-43.224-64.053-51.645-135.497H0c15.473 118.988 61.586 156.874 73.777 164.15 6.897 4.138 12.837 3.94 19.143.392 9.9-5.629 39.623-35.35 56.1-70.162 14.785-.039 35.932-3.53 49.495-13.789v33.9c0 38.229 14.583 53.008 37.243 53.008 18.178 0 32.212-14.17 39.015-30.069v27.902h31.334v-32.91c0-37.637 12.598-55.964 28.364-55.964 8.866 0 12.612 5.912 12.612 20.889v29.953c0 25.42 13.398 40.2 33.498 40.2 16.516 0 31.341-12.883 37.176-29.176 9.958 20.59 32.886 29.175 52.88 29.175 15.107 0 27.42-3.135 37.014-8.85v-28.571c-8.117 5.526-18.131 10.227-32.677 10.227-13.873 0-24.328-4.395-29.304-14.49z"/><path d="M216.185 62.862c12.02 0 20.296-9.065 20.296-20.691 0-11.627-8.277-20.495-20.296-20.495-12.02 0-20.1 8.08-20.1 20.495 0 12.414 8.08 20.69 20.1 20.69"/></g></svg>
